icon_installer/data/icons/scalable/actions/show-dock-symbolic.svg

<?xml version="1.0" encoding="UTF-8"?>
<svg height="16px" viewBox="0 0 16 16" width="16px" xmlns="http://www.w3.org/2000/svg">
    <path d="m 5 0 c -1.660156 0 -3 1.339844 -3 3 v 3 h -0.941406 v 1 c 0 1.105469 0.894531 2 2 2 h 9.960937 c 1.105469 0 2 -0.894531 2 -2 v -1 h -1.019531 v -3 c 0 -1.660156 -1.339844 -3 -3 -3 z m 0 2 h 6 c 0.546875 0 1 0.453125 1 1 v 3 h -8 v -3 c 0 -0.546875 0.453125 -1 1 -1 z m 2.5 8 c -0.277344 0 -0.5 0.222656 -0.5 0.5 v 1.5 h -2 l 3 3 l 3 -3 h -2 v -1.5 c 0 -0.277344 -0.222656 -0.5 -0.5 -0.5 z m -6.5 4 c -0.554688 0 -1 0.445312 -1 1 s 0.445312 1 1 1 h 6 l -2 -2 z m 10 0 l -2 2 h 6 c 0.554688 0 1 -0.445312 1 -1 s -0.445312 -1 -1 -1 z m 0 0" fill="#2e3436"/>
</svg>

<svg xmlns="http://www.w3.org/2000/svg" width="16" height="16"><path fill="#2e3436" d="M5 0C3.34 0 2 1.34 2 3v3h-.941v1c0 1.105.894 2 2 2h9.96c1.106 0 2-.895 2-2V6H14V3c0-1.66-1.34-3-3-3zm0 2h6c.547 0 1 .453 1 1v3H4V3c0-.547.453-1 1-1zm2.5 8c-.277 0-.5.223-.5.5V12H5l3 3 3-3H9v-1.5c0-.277-.223-.5-.5-.5zM1 14c-.555 0-1 .445-1 1s.445 1 1 1h6l-2-2zm10 0-2 2h6c.555 0 1-.445 1-1s-.445-1-1-1zm0 0"/></svg>
